X:122
T:Duke of York’s March(in F). JJo.122
S:J.Jones MS,1801,N.Shrops.
N:Identical to JJ 001 in D, but with an additional part which seems to be in C.
Z:Neil Brookes 2006
M:4/4
L:1/8
Q:1/8=240
K:F
F2F>F A2A>A|.c.A.c.AF2c2|.f.c.f.c fcAF|c2c>cc2z2|!
c’2a2f2f2|g2 g>b a2 z c’|b3a afba|g2g>gg2z2:||!
c2c>c cgab|c2c>ccfac’|bg.g.g af.f.f|d’c’.b.a a2g2|!
“pia”f3a/g/ fcde|ed d4 e/f/g/a/|”^for”.b.b.a.a .g.g.f.f|g2g>g g2z2|!
F2F>F A2A>A|.c.A.c.AF2b2|ac’c’a bgfe\|f2f>f “^end”f2:||!
K:C
“^Trio”c3e dcdB|.c2.e2.c2.e2|e3g fefd|.e2.g2.e2.g2|!
g3bc’3g|a3b {d’}c’2ba|g2c’g gffe|e4d4::!
d3efefd|.e2.g2.c’2.e’2|d3efefd|e2c>cc4|!
a3b{d’}c’2 ba|g2c’2c’2e’2|d’2c’2d’2b2|c’2c’>c'”D.C.”c’4:|

